svg/shop_coffee-11.svg

<?xml version="1.0" encoding="UTF-8" standalone="no"?>
<svg
   xmlns:dc="http://purl.org/dc/elements/1.1/"
   xmlns:cc="http://creativecommons.org/ns#"
   xmlns:rdf="http://www.w3.org/1999/02/22-rdf-syntax-ns#"
   xmlns:svg="http://www.w3.org/2000/svg"
   xmlns="http://www.w3.org/2000/svg"
   xmlns:sodipodi="http://sodipodi.sourceforge.net/DTD/sodipodi-0.dtd"
   xmlns:inkscape="http://www.inkscape.org/namespaces/inkscape"
   version="1.1"
   width="11"
   height="11"
   id="svg2"
   inkscape:version="0.91 r13725"
   sodipodi:docname="shop_coffee-11.svg">
  <metadata
     id="metadata10">
    <rdf:RDF>
      <cc:Work
         rdf:about="">
        <dc:format>image/svg+xml</dc:format>
        <dc:type
           rdf:resource="http://purl.org/dc/dcmitype/StillImage" />
        <dc:title></dc:title>
      </cc:Work>
    </rdf:RDF>
  </metadata>
  <defs
     id="defs8" />
  <sodipodi:namedview
     pagecolor="#ffffff"
     bordercolor="#666666"
     borderopacity="1"
     objecttolerance="10"
     gridtolerance="10"
     guidetolerance="10"
     inkscape:pageopacity="0"
     inkscape:pageshadow="2"
     inkscape:window-width="924"
     inkscape:window-height="480"
     id="namedview6"
     showgrid="false"
     fit-margin-top="0"
     fit-margin-left="0"
     fit-margin-right="0"
     fit-margin-bottom="0"
     inkscape:zoom="16.857143"
     inkscape:cx="5.5000003"
     inkscape:cy="4.7424389"
     inkscape:window-x="0"
     inkscape:window-y="27"
     inkscape:window-maximized="0"
     inkscape:current-layer="svg2" />
  <path
     d="m 9.7306733,1.1090461 c 0,0 -0.593852,-0.55527779 -1.5724233,-0.42162939 C 7.1796791,0.82106541 4.4582059,2.125221 3.1933969,3.2471021 1.9285875,4.3689834 0.18875243,6.1682067 0.07725693,7.3634263 c -0.1114954,1.1952189 -0.2939805,1.7137377 1.02786757,3.0339267 1.321848,1.320189 4.445151,0.05973 4.445151,0.05973 0,0 2.7487949,-1.253525 4.1002458,-3.5777413 1.3514517,-2.3242163 1.3037827,-3.3081595 1.3037827,-3.3081595 0,0 0.18759,-0.8595149 -0.197391,-1.6118381 -0.38498,-0.7523237 -0.9351657,-0.6815304 -0.9351657,-0.6815304 0,0 -0.672842,0.4406563 -1.186766,1.0069787 C 8.1210574,2.8511115 8.1301646,2.867988 7.8740532,3.0943167 7.6179423,3.3206448 7.2235181,3.4074925 6.9292756,3.6799807 6.635033,3.9524686 5.9159493,5.7291503 4.5923252,6.8199247 3.2687011,7.9106989 2.5908433,8.1732459 2.2609379,8.535407 1.9310325,8.8975694 1.8629419,9.2776089 1.6144045,9.2064557 1.3658672,9.1353022 1.4681772,7.8321247 1.9422681,7.4256272 2.416359,7.0191299 2.5430959,7.0982205 3.2268257,6.6518568 3.9105557,6.2054935 4.6977298,4.0487715 6.6197132,2.5870769 8.5416963,1.1253818 9.7306733,1.1090461 9.7306733,1.1090461 Z"
     id="path4"
     inkscape:connector-curvature="0" />
</svg>

<svg xmlns="http://www.w3.org/2000/svg" width="11" height="11">
    <path d="M9.73 1.109S9.138.554 8.159.687c-.978.134-3.7 1.438-4.965 2.56C1.93 4.37.19 6.168.077 7.363c-.111 1.196-.294 1.714 1.028 3.034 1.322 1.32 4.445.06 4.445.06S8.3 9.204 9.65 6.88c1.352-2.324 1.304-3.308 1.304-3.308s.188-.86-.197-1.612c-.385-.752-.935-.681-.935-.681s-.673.44-1.187 1.007c-.514.566-.505.583-.76.81-.257.226-.651.312-.946.585-.294.272-1.013 2.05-2.337 3.14C3.27 7.91 2.591 8.173 2.261 8.535c-.33.363-.398.743-.647.671-.248-.07-.146-1.374.328-1.78.474-.407.601-.328 1.285-.774.684-.447 1.47-2.603 3.393-4.065C8.542 1.125 9.73 1.11 9.73 1.11z"/>
</svg>
